X:1
T:Title
%%score { ( 1 3 4 ) | 2 }
L:1/8
M:4/4
K:D
V:1 treble nm="Grand Piano"
V:3 treble 
V:4 treble 
V:2 bass 
V:1
 z4 z2[Q:1/4=106] A2 | d2 d2 A2 F2 | A2 A2 F4 | DD z D F2 E2 |[M:3/4] [A,CE]4 z2 |[M:1/4] z2 | %6
[M:4/4] d2 d2 A2 F2 | A2 A2 F4 | DD z D [DF]2 [CE]2 | D4 z2 A2 | B2 B2 B2 d2 | B2 A2 z2 z F | %12
 D2 E2 F2 A2 |[M:9/8] A2 ^G- G A2- A A2 |[M:4/4] d2 d2 A2 F2 | A2 A2 F4 | DD z D [DF]2 [CE]2 | %17
[M:3/4] D4 z2 |[M:4/4] DD z B, D2 B,2 | D4 F2 z2 | FF z D F2 D2 | F4 A2 [CGA]2 | %22
 [DFd]2 [Fd]2 [FA]2 [DF]2 | [FA]2 [FA]2 F4 | DD z D [DF]2 [CE]2 |[M:3/4] D4 z2 |] %26
V:2
 z8 | D,2 [F,A,D]2 D,2 [F,A,D]2 | D,2 [F,A,D]2 [D,A,D]4 | %3
 [D,F,A,][D,F,A,] z [B,,F,B,] [E,^G,D]2 [E,G,D]2 |[M:3/4] A,,4 z2 |[M:1/4] A2 | %6
[M:4/4] D,2 [F,A,D]2 D,2 [F,A,D]2 | D,2 [F,A,D]2 [D,A,D]4 | %8
 [A,,F,A,][A,,F,A,] z [B,,F,A,] [A,,A,]2 [A,,G,]2 | [D,F,]4 z4 | G,2 [B,D]2 G,2 [B,D]2 | %11
 D,2 [F,A,D]2 D,2 [F,A,]2 | D,2 [F,A,D]2 D,2 [F,A,D]2 | %13
[M:9/8] [E,B,D]2 [E,B,D]- [E,B,D] [A,C]2- [A,C] z z |[M:4/4] D,2 [F,A,D]2 D,2 [F,A,D]2 | %15
 D,2 [F,A,D]2 [D,A,D]4 | [A,,F,A,][A,,F,A,] z [A,,F,A,] [A,,A,]2 [A,,G,]2 |[M:3/4] [D,F,]4 z2 | %18
[M:4/4] D,D, z B,, D,2 B,,2 | D,4 F,2 z2 | F,F, z D, F,2 D,2 | F,4 A,2 E,2 | %22
 D,2 [D,A,]2 [D,D]2 [D,A,]2 | [D,D]2 [D,D]2 [D,A,D]4 | %24
 [A,,F,A,][A,,F,A,] z [A,,F,A,] [A,,A,]2 [A,,G,]2 |[M:3/4] [D,F,]4 z2 |] %26
V:3
 x8 | x8 | x8 | x8 |[M:3/4] x6 |[M:1/4] x2 |[M:4/4] x8 | x8 | x8 | x8 | x8 | z4 A4 | x8 | %13
[M:9/8] x9 |[M:4/4] x8 | x8 | x8 |[M:3/4] x6 |[M:4/4] x8 | x8 | x8 | x8 | x8 | x8 | x8 | %25
[M:3/4] x6 |] %26
V:4
 x8 | x8 | x8 | x8 |[M:3/4] x6 |[M:1/4] x2 |[M:4/4] x8 | x8 | x8 | x8 | x8 | z4 z2 D2 | x8 | %13
[M:9/8] x9 |[M:4/4] x8 | x8 | x8 |[M:3/4] x6 |[M:4/4] x8 | x8 | x8 | x8 | x8 | x8 | x8 | %25
[M:3/4] x6 |] %26

